X:140
T:The Freize Britches
C: Traditional
R: jig
M: 6/8
L: 1/8
K: Dmix
FED EFG | AdA cAG | A3 A2G | F3 GED |
FED EFG | AdA cAG | F3 GEA | D3 D3 :|
|: d2 e f2 d | efd cAG | A3 A2G | F3 GED |
d2 e f2 d | efd cAG | F3 GEA | D3 D3 :|
|: D3 c3 | AdA cAG | ABc d3 | ded cAG |
D3 c3 | AdA cAG | F3 GEA | D3 D3 :|
|: d2 e fdd | add fdd | ^c2 d eAA | fed ed^c |
d2 e fdd | add fdd | faf ge^c | dfe d3 :|
|: fed ed^c | ded cAG | A3 A2G | F3 GED |
fed ed^c | ded cAG | F3 GEA | D3 D3 :|

%%newpage
%%scale .7
%%staffsep 40

